X: 1
T: Jean of Broomfield
C: Nan Main
R: strathspey
Z: 2013 John Chambers <jc:trillian.mit.edu>
B: Originally Ours, p. 186
N: Tune for "Odd Thoughts"
M: C
L: 1/8
K: D
B |\
"D"A<F E>D "G"B,3 B | "D"A<F E>D "A7"E2- EB |\
"D"A<F E>D "Bm"d>e f>e |1 "G"d>B A<F "A7"E3 :|2 "G"d>B "A7"A<F "D"D3 :|
B |\
"D"Ad fa "A7"ge Ag | "Bm"fd f<d "A7"e3 A |\
"D"Ad fa "A7"ge Ag | "Bm"fd "A7"e<c "D"d3 |]
c |\
"G"B>c dB "D"A>c dA | "Em"Ge "D"Fd "A7"E2- EB |\
"D"A<F ED "G"B>d "F#7"f>e | "Bm"d>B "A7"A<F "D"D3 |]
